X: 6
T: Apples In Winter
R: jig
M: 6/8
L: 1/8
K: Edor
A|BEE BEE|Bdf edB|BAF FEF|DFA dBA||BEE BEE|Bdf edB|BAF DAF|FED E2:|A|Bef gfe|faf edB|BAF FEF|DFA dBA|Bef gfe|~f3 edB|BAF DAF|FED E2:|


Tune 299	Setting 13059

